src/icons/add-receipt.svg

<?xml version="1.0" encoding="UTF-8"?>
<svg xmlns="http://www.w3.org/2000/svg" xmlns:xlink="http://www.w3.org/1999/xlink" width="32" height="32" viewBox="0 0 32 32" version="1.1">
<g id="surface1">
<path style=" stroke:none;fill-rule:nonzero;fill:rgb(0%,0%,0%);fill-opacity:1;" d="M 7.039062 1.28125 C 6.941406 1.28125 6.84375 1.300781 6.753906 1.347656 L 5.761719 1.84375 L 4.765625 1.347656 C 4.566406 1.25 4.332031 1.257812 4.144531 1.375 C 3.957031 1.492188 3.839844 1.699219 3.839844 1.921875 L 3.839844 30.078125 C 3.839844 30.433594 4.125 30.71875 4.480469 30.71875 L 21.773438 30.71875 C 24.277344 32.585938 27.855469 32.394531 30.125 30.125 C 32.613281 27.636719 32.613281 23.5625 30.125 21.074219 C 29.542969 20.492188 28.875 20.054688 28.160156 19.742188 L 28.160156 1.921875 C 28.160156 1.699219 28.042969 1.492188 27.855469 1.375 C 27.667969 1.257812 27.429688 1.25 27.234375 1.347656 L 26.238281 1.84375 L 25.246094 1.347656 C 25.066406 1.257812 24.855469 1.257812 24.671875 1.347656 L 23.679688 1.84375 L 22.6875 1.347656 C 22.507812 1.257812 22.292969 1.257812 22.113281 1.347656 L 21.121094 1.84375 L 20.125 1.347656 C 19.945312 1.257812 19.734375 1.257812 19.554688 1.347656 L 18.558594 1.84375 L 17.566406 1.347656 C 17.386719 1.257812 17.175781 1.257812 16.992188 1.347656 L 16 1.84375 L 15.007812 1.347656 C 14.828125 1.257812 14.613281 1.257812 14.433594 1.347656 L 13.441406 1.84375 L 12.445312 1.347656 C 12.265625 1.257812 12.054688 1.257812 11.875 1.347656 L 10.878906 1.84375 L 9.886719 1.347656 C 9.707031 1.257812 9.496094 1.257812 9.3125 1.347656 L 8.320312 1.84375 L 7.328125 1.347656 C 7.238281 1.300781 7.136719 1.28125 7.039062 1.28125 Z M 8.320312 7.039062 L 17.921875 7.039062 C 18.273438 7.039062 18.558594 7.324219 18.558594 7.679688 C 18.558594 8.035156 18.273438 8.320312 17.921875 8.320312 L 8.320312 8.320312 C 7.964844 8.320312 7.679688 8.035156 7.679688 7.679688 C 7.679688 7.324219 7.964844 7.039062 8.320312 7.039062 Z M 21.761719 7.039062 L 23.679688 7.039062 C 24.035156 7.039062 24.320312 7.324219 24.320312 7.679688 C 24.320312 8.035156 24.035156 8.320312 23.679688 8.320312 L 21.761719 8.320312 C 21.40625 8.320312 21.121094 8.035156 21.121094 7.679688 C 21.121094 7.324219 21.40625 7.039062 21.761719 7.039062 Z M 8.320312 10.878906 L 15.359375 10.878906 C 15.714844 10.878906 16 11.167969 16 11.519531 C 16 11.875 15.714844 12.160156 15.359375 12.160156 L 8.320312 12.160156 C 7.964844 12.160156 7.679688 11.875 7.679688 11.519531 C 7.679688 11.167969 7.964844 10.878906 8.320312 10.878906 Z M 21.761719 10.878906 L 23.679688 10.878906 C 24.035156 10.878906 24.320312 11.167969 24.320312 11.519531 C 24.320312 11.875 24.035156 12.160156 23.679688 12.160156 L 21.761719 12.160156 C 21.40625 12.160156 21.121094 11.875 21.121094 11.519531 C 21.121094 11.167969 21.40625 10.878906 21.761719 10.878906 Z M 8.320312 14.71875 L 17.921875 14.71875 C 18.273438 14.71875 18.558594 15.007812 18.558594 15.359375 C 18.558594 15.714844 18.273438 16 17.921875 16 L 8.320312 16 C 7.964844 16 7.679688 15.714844 7.679688 15.359375 C 7.679688 15.007812 7.964844 14.71875 8.320312 14.71875 Z M 21.761719 14.71875 L 23.679688 14.71875 C 24.035156 14.71875 24.320312 15.007812 24.320312 15.359375 C 24.320312 15.714844 24.035156 16 23.679688 16 L 21.761719 16 C 21.40625 16 21.121094 15.714844 21.121094 15.359375 C 21.121094 15.007812 21.40625 14.71875 21.761719 14.71875 Z M 8.320312 18.558594 L 15.359375 18.558594 C 15.714844 18.558594 16 18.847656 16 19.199219 C 16 19.554688 15.714844 19.839844 15.359375 19.839844 L 8.320312 19.839844 C 7.964844 19.839844 7.679688 19.554688 7.679688 19.199219 C 7.679688 18.847656 7.964844 18.558594 8.320312 18.558594 Z M 21.761719 18.558594 L 23.679688 18.558594 C 24.035156 18.558594 24.320312 18.847656 24.320312 19.199219 C 24.320312 19.25 24.300781 19.296875 24.292969 19.34375 C 23.789062 19.449219 23.300781 19.617188 22.832031 19.839844 L 21.761719 19.839844 C 21.40625 19.839844 21.121094 19.554688 21.121094 19.199219 C 21.121094 18.847656 21.40625 18.558594 21.761719 18.558594 Z M 25.601562 20.484375 C 26.914062 20.484375 28.222656 20.984375 29.21875 21.980469 C 31.210938 23.972656 31.210938 27.230469 29.21875 29.21875 C 27.226562 31.210938 23.972656 31.210938 21.980469 29.21875 C 19.988281 27.226562 19.988281 23.972656 21.980469 21.980469 C 22.976562 20.984375 24.289062 20.484375 25.601562 20.484375 Z M 25.601562 21.796875 C 25.238281 21.796875 24.964844 22.070312 24.964844 22.433594 L 24.964844 24.964844 L 22.433594 24.964844 C 22.070312 24.964844 21.796875 25.238281 21.796875 25.601562 C 21.796875 25.960938 22.070312 26.234375 22.433594 26.234375 L 24.964844 26.234375 L 24.964844 28.765625 C 24.964844 29.128906 25.238281 29.402344 25.601562 29.402344 C 25.78125 29.402344 25.960938 29.308594 26.050781 29.21875 C 26.144531 29.128906 26.234375 28.949219 26.234375 28.765625 L 26.234375 26.234375 L 28.765625 26.234375 C 28.949219 26.234375 29.128906 26.144531 29.21875 26.050781 C 29.3125 25.960938 29.402344 25.78125 29.402344 25.601562 C 29.402344 25.238281 29.128906 24.964844 28.765625 24.964844 L 26.234375 24.964844 L 26.234375 22.433594 C 26.234375 22.070312 25.960938 21.796875 25.601562 21.796875 Z M 8.320312 22.398438 C 8.671875 22.398438 8.960938 22.6875 8.960938 23.039062 C 8.960938 23.394531 8.671875 23.679688 8.320312 23.679688 C 7.964844 23.679688 7.679688 23.394531 7.679688 23.039062 C 7.679688 22.6875 7.964844 22.398438 8.320312 22.398438 Z M 10.238281 22.398438 C 10.59375 22.398438 10.878906 22.6875 10.878906 23.039062 C 10.878906 23.394531 10.59375 23.679688 10.238281 23.679688 C 9.886719 23.679688 9.601562 23.394531 9.601562 23.039062 C 9.601562 22.6875 9.886719 22.398438 10.238281 22.398438 Z M 12.160156 22.398438 C 12.511719 22.398438 12.800781 22.6875 12.800781 23.039062 C 12.800781 23.394531 12.511719 23.679688 12.160156 23.679688 C 11.808594 23.679688 11.519531 23.394531 11.519531 23.039062 C 11.519531 22.6875 11.808594 22.398438 12.160156 22.398438 Z M 14.078125 22.398438 C 14.433594 22.398438 14.71875 22.6875 14.71875 23.039062 C 14.71875 23.394531 14.433594 23.679688 14.078125 23.679688 C 13.726562 23.679688 13.441406 23.394531 13.441406 23.039062 C 13.441406 22.6875 13.726562 22.398438 14.078125 22.398438 Z M 16 22.398438 C 16.351562 22.398438 16.640625 22.6875 16.640625 23.039062 C 16.640625 23.394531 16.351562 23.679688 16 23.679688 C 15.648438 23.679688 15.359375 23.394531 15.359375 23.039062 C 15.359375 22.6875 15.648438 22.398438 16 22.398438 Z M 17.921875 22.398438 C 18.273438 22.398438 18.558594 22.6875 18.558594 23.039062 C 18.558594 23.394531 18.273438 23.679688 17.921875 23.679688 C 17.566406 23.679688 17.28125 23.394531 17.28125 23.039062 C 17.28125 22.6875 17.566406 22.398438 17.921875 22.398438 Z M 17.921875 22.398438 "/>
</g>
</svg>

<svg role="img" viewBox="0 0 32 32" xmlns="http://www.w3.org/2000/svg"><path d="M7.04 1.281a.611.611 0 0 0-.286.067l-.992.496-.996-.496a.64.64 0 0 0-.926.574v28.156c0 .356.285.64.64.64h17.293c2.504 1.868 6.082 1.677 8.352-.593 2.488-2.488 2.488-6.562 0-9.05a6.366 6.366 0 0 0-1.965-1.333V1.922a.64.64 0 0 0-.926-.574l-.996.496-.992-.496a.645.645 0 0 0-.574 0l-.992.496-.992-.496a.645.645 0 0 0-.575 0l-.992.496-.996-.496a.637.637 0 0 0-.57 0l-.996.496-.993-.496a.645.645 0 0 0-.574 0L16 1.844l-.992-.496a.645.645 0 0 0-.574 0l-.993.496-.996-.496a.637.637 0 0 0-.57 0l-.996.496-.992-.496a.645.645 0 0 0-.575 0l-.992.496-.992-.496a.627.627 0 0 0-.289-.067M8.32 7.04h9.602c.351 0 .637.285.637.64a.638.638 0 0 1-.637.641H8.32a.639.639 0 0 1-.64-.64c0-.356.285-.64.64-.64m13.442 0h1.918c.355 0 .64.285.64.64a.638.638 0 0 1-.64.641h-1.918a.639.639 0 0 1-.64-.64c0-.356.284-.64.64-.64M8.32 10.88h7.04a.641.641 0 0 1 0 1.281H8.32a.641.641 0 0 1 0-1.281m13.442 0h1.918a.641.641 0 0 1 0 1.281h-1.918a.641.641 0 0 1 0-1.281M8.32 14.719h9.602a.64.64 0 0 1 0 1.281H8.32a.641.641 0 0 1 0-1.281m13.442 0h1.918a.641.641 0 0 1 0 1.281h-1.918a.641.641 0 0 1 0-1.281M8.32 18.559h7.04a.641.641 0 0 1 0 1.28H8.32a.641.641 0 0 1 0-1.281m13.442 0h1.918a.64.64 0 0 1 .64.64c0 .051-.02.098-.027.145a6.513 6.513 0 0 0-1.461.496h-1.07a.641.641 0 0 1 0-1.281m3.84 1.925a5.1 5.1 0 0 1 3.617 1.496c1.992 1.993 1.992 5.25 0 7.239a5.13 5.13 0 0 1-7.239 0 5.13 5.13 0 0 1 0-7.239 5.107 5.107 0 0 1 3.622-1.496m0 1.313a.622.622 0 0 0-.637.637v2.53h-2.531a.622.622 0 0 0-.637.638.62.62 0 0 0 .637.632h2.53v2.532c0 .363.274.636.638.636.18 0 .359-.093.449-.183a.672.672 0 0 0 .183-.453v-2.532h2.532c.183 0 .363-.09.453-.183a.67.67 0 0 0 .183-.45.622.622 0 0 0-.636-.636h-2.532v-2.531a.621.621 0 0 0-.632-.637m-17.282.601a.641.641 0 1 1 0 1.28.641.641 0 0 1 0-1.28m1.918 0a.641.641 0 0 1 0 1.282.64.64 0 0 1 0-1.281m1.922 0a.641.641 0 1 1 0 1.28.641.641 0 0 1 0-1.28m1.918 0a.641.641 0 0 1 0 1.282.64.64 0 0 1 0-1.281m1.922 0a.641.641 0 1 1 0 1.28.641.641 0 0 1 0-1.28m1.922 0a.64.64 0 0 1 0 1.282.641.641 0 0 1 0-1.281m0 0" style="stroke:none;fill-rule:nonzero;fill:rgb(0%,0%,0%);fill-opacity:1"/></svg>
